src/static/svg/heart-bg.svg

<?xml version="1.0" encoding="UTF-8"?>
<svg width="2240px" height="1936px" viewBox="0 0 2240 1936" version="1.1" xmlns="http://www.w3.org/2000/svg" xmlns:xlink="http://www.w3.org/1999/xlink">
    <title>heart-bg</title>
    <g id="R4" stroke="none" stroke-width="1" fill="none" fill-rule="evenodd">
        <g id="heart-bg">
            <path d="M1679.65837,0.0689567018 L1671.46067,0 C1554.32768,0 1435.38064,38.3629118 1327.50164,110.951333 C1284.76796,139.729263 1241.78169,174.345528 1192.20511,220.01785 L1186.85479,224.959747 C1166.60165,243.71597 1138.86265,269.390848 1122.51317,269.390848 L1117.071,269.390848 C1101.18077,269.390848 1073.46473,243.738955 1053.23455,225.005718 L1047.76942,219.971879 C998.330615,174.414484 955.36731,139.775235 912.518819,110.951333 C804.662782,38.3629118 685.692774,0 568.559786,0 L560.385047,0.0689567018 C231.328839,4.8499547 5.05389982,322.924235 0.139871311,617.024568 C-2.43195669,772.68283 30.4736641,925.720736 97.9382237,1071.88596 C221.730409,1339.87469 461.576333,1587.19939 810.862724,1806.89544 C904.298154,1865.64655 997.090627,1919.59368 1105.1074,1934.28146 C1106.53109,1934.51131 1109.40144,1934.8561 1109.4244,1934.8561 C1113.32807,1935.40775 1117.23174,1935.68358 1121.11244,1935.68358 C1127.65682,1935.68358 1134.20121,1934.92505 1140.51596,1933.47696 C1246.09869,1917.73185 1337.32969,1864.63519 1429.18069,1806.89544 C1778.46709,1587.17641 2018.33597,1339.87469 2142.08223,1071.88596 C2209.56975,925.697751 2242.45241,772.659844 2239.85762,617.024568 C2234.98952,322.924235 2008.71458,4.8499547 1679.65837,0.0689567018 Z" id="Fill-1" fill="#F7C2C3"></path>
            <path d="M1539.38257,242.734452 L1533.23253,242.682717 C1445.35761,242.682717 1356.12176,271.464444 1275.18932,325.923817 C1243.12987,347.514423 1210.88093,373.485232 1173.68784,407.750835 L1169.67395,411.458487 C1154.47974,425.53032 1133.66953,444.792866 1121.4039,444.792866 L1117.3211,444.792866 C1105.40002,444.792866 1084.60703,425.547565 1069.43005,411.492977 L1065.33002,407.716346 C1028.24029,373.536967 996.00858,347.548913 963.863,325.923817 C882.947788,271.464444 793.694708,242.682717 705.819788,242.682717 L699.686976,242.734452 C452.824086,246.32139 283.069241,484.956223 279.382664,705.604632 C277.45324,822.387049 302.139529,937.203548 352.752451,1046.86382 C445.6232,1247.92203 625.559201,1433.47709 887.599077,1598.30378 C957.695735,1642.38172 1027.31004,1682.85549 1108.34584,1693.87497 C1109.41391,1694.04742 1111.56729,1694.3061 1111.58451,1694.3061 C1114.5131,1694.71997 1117.44169,1694.92691 1120.35306,1694.92691 C1125.26275,1694.92691 1130.17244,1694.35783 1134.90987,1693.2714 C1214.11961,1681.45865 1282.56247,1641.62295 1351.47047,1598.30378 C1613.51035,1433.45984 1793.46357,1247.92203 1886.29987,1046.86382 C1936.93002,937.186303 1961.59908,822.369804 1959.65243,705.604632 C1956.00031,484.956223 1786.24546,246.32139 1539.38257,242.734452 Z" id="Fill-1" fill="#FEFEFE" opacity="0.15"></path>
            <path d="M1434.4767,424.733522 L1429.86329,424.694755 C1363.94451,424.694755 1297.00484,446.261964 1236.29391,487.07038 C1212.24474,503.249017 1188.05341,522.709902 1160.15326,548.386382 L1157.14227,551.164662 C1145.74444,561.709206 1130.13379,576.143341 1120.93282,576.143341 L1117.87013,576.143341 C1108.92761,576.143341 1093.3299,561.722128 1081.94498,551.190507 L1078.86937,548.360538 C1051.04677,522.748669 1026.86836,503.274862 1002.75457,487.07038 C942.05657,446.261964 875.103973,424.694755 809.185193,424.694755 L804.584706,424.733522 C619.402171,427.421346 492.061717,606.239225 489.296256,771.579214 C487.848912,859.088584 506.367165,945.124821 544.334108,1027.29731 C614.000475,1177.95764 748.978255,1317.00088 945.545703,1440.5116 C998.128239,1473.54083 1050.34894,1503.86931 1111.1374,1512.12662 C1111.93861,1512.25584 1113.55395,1512.44967 1113.56687,1512.44967 C1115.76373,1512.75981 1117.96059,1512.91488 1120.14453,1512.91488 C1123.82751,1512.91488 1127.51048,1512.48844 1131.06423,1511.67434 C1190.48288,1502.82261 1241.82484,1472.97225 1293.5157,1440.5116 C1490.08315,1316.98796 1625.07386,1177.95764 1694.71438,1027.29731 C1732.69424,945.111898 1751.19957,859.075662 1749.73931,771.579214 C1746.99969,606.239225 1619.65924,427.421346 1434.4767,424.733522 Z" id="Fill-1" fill="#FEFEFE" opacity="0.15"></path>
            <path d="M1357.48274,560.510606 L1354.02533,560.481513 C1304.62401,560.481513 1254.45761,576.666463 1208.9592,607.290832 C1190.9361,619.431969 1172.80647,634.036243 1151.89734,653.304964 L1149.64082,655.389904 C1141.09898,663.302977 1129.39994,674.134966 1122.50448,674.134966 L1120.20922,674.134966 C1113.50745,674.134966 1101.8181,663.312675 1093.28594,655.409299 L1090.981,653.28557 C1070.12998,634.065336 1052.01003,619.451364 1033.9385,607.290832 C988.44978,576.666463 938.273693,560.481513 888.872377,560.481513 L885.424648,560.510606 C746.643848,562.527663 651.211468,696.720195 649.138957,820.798346 C648.054278,886.469095 661.932358,951.034341 690.385811,1012.70007 C742.595671,1125.76198 843.751669,1230.10593 991.064631,1322.79362 C1030.47141,1347.58016 1069.60701,1370.33994 1115.16353,1376.53658 C1115.76397,1376.63355 1116.97455,1376.77901 1116.98424,1376.77901 C1118.63063,1377.01175 1120.27701,1377.12812 1121.91372,1377.12812 C1124.67384,1377.12812 1127.43396,1376.8081 1130.09723,1376.19717 C1174.62718,1369.55445 1213.10423,1347.15347 1251.84276,1322.79362 C1399.15572,1230.09624 1500.32141,1125.76198 1552.5119,1012.70007 C1580.97503,951.024644 1594.84343,886.459398 1593.74907,820.798346 C1591.69592,696.720195 1496.26354,562.527663 1357.48274,560.510606 Z" id="Fill-1" fill="#FEFEFE" opacity="0.15"></path>
            <path d="M1298.05183,662.584158 L1295.45789,662.562339 C1258.39431,662.562339 1220.75673,674.701051 1186.62133,697.669328 C1173.09941,706.77518 1159.49756,717.728386 1143.81039,732.179927 L1142.11742,733.743632 C1135.70886,739.678437 1126.9316,747.802428 1121.75825,747.802428 L1120.03622,747.802428 C1115.00819,747.802428 1106.2382,739.68571 1099.8369,733.758178 L1098.10761,732.165381 C1082.46403,717.750206 1068.86945,706.789726 1055.3112,697.669328 C1021.18306,674.701051 983.538212,662.562339 946.474636,662.562339 L943.88796,662.584158 C839.766993,664.096951 768.168388,764.74135 766.613476,857.799963 C765.79969,907.053025 776.211787,955.47696 797.559128,1001.72625 C836.729829,1086.52269 912.622606,1164.78065 1023.14487,1234.29642 C1052.70999,1252.88632 1082.07167,1269.95616 1116.25067,1274.60364 C1116.70115,1274.67637 1117.6094,1274.78546 1117.61666,1274.78546 C1118.85187,1274.96001 1120.08708,1275.04729 1121.31503,1275.04729 C1123.38582,1275.04729 1125.45662,1274.80728 1127.45475,1274.34908 C1160.86356,1269.36704 1189.73115,1252.56631 1218.79492,1234.29642 C1329.31719,1164.77338 1405.21723,1086.52269 1444.3734,1001.72625 C1465.728,955.469687 1476.13284,907.045752 1475.31178,857.799963 C1473.7714,764.74135 1402.1728,664.096951 1298.05183,662.584158 Z" id="Fill-1" fill="#FEFEFE" opacity="0.15"></path>
        </g>
    </g>
</svg>

<svg xmlns="http://www.w3.org/2000/svg" viewBox="0 0 2240 1936"><g fill="none" fill-rule="evenodd"><path fill="#F7C2C3" d="M1679.658.069L1671.461 0c-117.133 0-236.08 38.363-343.96 110.951-42.733 28.778-85.72 63.395-135.296 109.067l-5.35 4.942c-20.253 18.756-47.992 44.43-64.342 44.43h-5.442c-15.89 0-43.606-25.651-63.836-44.384l-5.466-5.034c-49.438-45.558-92.402-80.197-135.25-109.02C804.663 38.361 685.693 0 568.559 0l-8.174.069C231.329 4.85 5.054 322.924.14 617.025c-2.572 155.658 30.334 308.696 97.798 454.861 123.792 267.989 363.638 515.313 712.925 735.01 93.435 58.75 186.228 112.698 294.244 127.385 1.424.23 4.294.575 4.317.575 3.904.552 7.808.828 11.688.828a87.06 87.06 0 0 0 19.404-2.207c105.583-15.745 196.814-68.842 288.665-126.582 349.286-219.719 589.155-467.02 712.901-735.009 67.488-146.188 100.37-299.226 97.776-454.861-4.868-294.1-231.143-612.175-560.2-616.956z"/><path fill="#FEFEFE" d="M1539.383 242.734l-6.15-.051c-87.875 0-177.111 28.781-258.044 83.24-32.06 21.591-64.308 47.562-101.501 81.828l-4.014 3.707c-15.194 14.072-36.004 33.335-48.27 33.335h-4.083c-11.921 0-32.714-19.245-47.89-33.3l-4.101-3.777c-37.09-34.179-69.321-60.167-101.467-81.792-80.915-54.46-170.168-83.241-258.043-83.241l-6.133.051c-246.863 3.587-416.618 242.222-420.304 462.87-1.93 116.783 22.757 231.6 73.37 341.26 92.87 201.058 272.806 386.613 534.846 551.44 70.097 44.078 139.711 84.551 220.747 95.571 1.068.172 3.221.431 3.239.431 2.928.414 5.857.62 8.768.62 4.91 0 9.82-.568 14.557-1.655 79.21-11.812 147.652-51.648 216.56-94.967 262.04-164.844 441.994-350.382 534.83-551.44 50.63-109.678 75.3-224.494 73.352-341.26-3.652-220.648-173.407-459.283-420.27-462.87z" opacity=".15"/><path fill="#FEFEFE" d="M1434.477 424.734l-4.614-.04c-65.918 0-132.858 21.568-193.57 62.376-24.048 16.179-48.24 35.64-76.14 61.316l-3.01 2.779c-11.399 10.544-27.01 24.978-36.21 24.978h-3.063c-8.942 0-24.54-14.42-35.925-24.952l-3.076-2.83c-27.822-25.612-52-45.086-76.114-61.29-60.698-40.809-127.651-62.376-193.57-62.376l-4.6.039c-185.183 2.687-312.523 181.505-315.289 346.845-1.447 87.51 17.071 173.546 55.038 255.718 69.666 150.66 204.644 289.704 401.212 413.215 52.582 33.029 104.803 63.357 165.591 71.615.802.129 2.417.323 2.43.323 2.197.31 4.394.465 6.578.465 3.683 0 7.365-.427 10.92-1.24 59.418-8.852 110.76-38.703 162.45-71.163 196.568-123.524 331.559-262.554 401.2-413.215 37.98-82.185 56.485-168.221 55.024-255.718-2.74-165.34-130.08-344.158-315.262-346.845z" opacity=".15"/><path fill="#FEFEFE" d="M1357.483 560.51l-3.458-.028c-49.401 0-99.567 16.184-145.066 46.809-18.023 12.141-36.153 26.745-57.062 46.014l-2.256 2.085c-8.542 7.913-20.241 18.745-27.137 18.745h-2.295c-6.702 0-18.39-10.822-26.923-18.726l-2.305-2.123c-20.851-19.22-38.971-33.835-57.043-45.995-45.488-30.625-95.664-46.81-145.066-46.81l-3.447.03c-138.781 2.017-234.214 136.21-236.286 260.287-1.085 65.671 12.793 130.236 41.247 191.902 52.21 113.062 153.366 217.406 300.679 310.094 39.406 24.786 78.542 47.546 124.099 53.743.6.097 1.81.242 1.82.242 1.647.233 3.293.35 4.93.35 2.76 0 5.52-.32 8.183-.932 44.53-6.643 83.007-29.044 121.746-53.403 147.313-92.698 248.478-197.032 300.669-310.094 28.463-61.675 42.331-126.24 41.237-191.902-2.053-124.078-97.485-258.27-236.266-260.287z" opacity=".15"/><path fill="#FEFEFE" d="M1298.052 662.584l-2.594-.022c-37.064 0-74.701 12.14-108.837 35.107-13.522 9.106-27.123 20.06-42.81 34.51l-1.694 1.565c-6.408 5.934-15.185 14.058-20.359 14.058h-1.722c-5.028 0-13.798-8.116-20.2-14.044l-1.728-1.593c-15.644-14.415-29.239-25.375-42.797-34.496-34.128-22.968-71.773-35.107-108.836-35.107l-2.587.022c-104.121 1.513-175.72 102.157-177.275 195.216-.813 49.253 9.599 97.677 30.946 143.926 39.17 84.797 115.064 163.055 225.586 232.57 29.565 18.59 58.927 35.66 93.106 40.308.45.072 1.358.181 1.366.181 1.235.175 2.47.262 3.698.262 2.07 0 4.142-.24 6.14-.698 33.409-4.982 62.276-21.783 91.34-40.053 110.522-69.523 186.422-147.773 225.578-232.57 21.355-46.256 31.76-94.68 30.939-143.926-1.54-93.059-73.14-193.703-177.26-195.216z" opacity=".15"/></g></svg>
